X: 29987
T: Octopus, The
R: polka
M: 2/4
K: Bminor
|:G>d cB|cA FA|G>d cB|cd ec|
B>d cB|cA FA|G>d cB|1 cB BA:|2 cB Bd||
|:e>f ec|df ed|ea ag|af ed|e>f ec|
df ed|1 ca Bg|(3f/g/f/ e (3f/g/f/ e:|2 cd Bd|Af ed||

